content/blogs/regnskap/hva-er-anskaffelser/private-anskaffelser-prosess.svg

<svg xmlns="http://www.w3.org/2000/svg" width="800" height="500"><defs><linearGradient id="a" x1="0%" x2="100%" y1="0%" y2="100%"><stop offset="0%" style="stop-color:#e8f5e8;stop-opacity:1"/><stop offset="100%" style="stop-color:#d4edda;stop-opacity:1"/></linearGradient><linearGradient id="c" x1="0%" x2="100%" y1="0%" y2="100%"><stop offset="0%" style="stop-color:#e3f2fd;stop-opacity:1"/><stop offset="100%" style="stop-color:#bbdefb;stop-opacity:1"/></linearGradient><linearGradient id="d" x1="0%" x2="100%" y1="0%" y2="100%"><stop offset="0%" style="stop-color:#fff8e1;stop-opacity:1"/><stop offset="100%" style="stop-color:#ffecb3;stop-opacity:1"/></linearGradient><marker id="b" markerHeight="10" markerUnits="strokeWidth" markerWidth="10" orient="auto" refX="9" refY="3"><path fill="#1976d2" d="M0 0v6l9-3z"/></marker></defs><path fill="#f8f9fa" d="M0 0h800v500H0z"/><text x="400" y="30" fill="#1976d2" font-family="Arial, sans-serif" font-size="24" font-weight="bold" text-anchor="middle">
    Private Anskaffelsesprosesser
  </text><rect width="220" height="180" x="50" y="70" fill="url(#a)" stroke="#28a745" stroke-width="3" rx="15"/><text x="160" y="95" fill="#155724" font-family="Arial, sans-serif" font-size="16" font-weight="bold" text-anchor="middle">
    Strategisk Innkjøp
  </text><circle cx="160" cy="125" r="20" fill="#28a745" opacity=".3"/><path fill="#28a745" d="M150 115h20l-5 10 5 10h-20l5-10Z"/><text x="160" y="155" fill="#155724" font-family="Arial, sans-serif" font-size="11" font-weight="bold" text-anchor="middle">
    Kjennetegn:
  </text><text x="70" y="175" fill="#155724" font-family="Arial, sans-serif" font-size="10">
    • Langsiktige leverandørforhold
  </text><text x="70" y="190" fill="#155724" font-family="Arial, sans-serif" font-size="10">
    • Fokus på verdiskaping
  </text><text x="70" y="205" fill="#155724" font-family="Arial, sans-serif" font-size="10">
    • Integrert med forretningsstrategi
  </text><text x="70" y="220" fill="#155724" font-family="Arial, sans-serif" font-size="10">
    • Partnerskapsmodeller
  </text><text x="70" y="235" fill="#155724" font-family="Arial, sans-serif" font-size="10">
    • Innovasjonsfokus
  </text><path stroke="#1976d2" stroke-width="2" marker-end="url(#b)" d="M270 160h40"/><rect width="220" height="180" x="320" y="70" fill="url(#c)" stroke="#007bff" stroke-width="3" rx="15"/><text x="430" y="95" fill="#004085" font-family="Arial, sans-serif" font-size="16" font-weight="bold" text-anchor="middle">
    Operasjonelt Innkjøp
  </text><circle cx="430" cy="125" r="20" fill="#007bff" opacity=".3"/><path fill="none" stroke="#007bff" stroke-width="3" d="M415 110h30v30h-30z"/><path stroke="#007bff" stroke-width="2" d="M420 120h20m-20 5h20m-20 5h20"/><text x="430" y="155" fill="#004085" font-family="Arial, sans-serif" font-size="11" font-weight="bold" text-anchor="middle">
    Kjennetegn:
  </text><text x="340" y="175" fill="#004085" font-family="Arial, sans-serif" font-size="10">
    • Daglige innkjøpsbehov
  </text><text x="340" y="190" fill="#004085" font-family="Arial, sans-serif" font-size="10">
    • Fokus på effektivitet
  </text><text x="340" y="205" fill="#004085" font-family="Arial, sans-serif" font-size="10">
    • Standardiserte prosesser
  </text><text x="340" y="220" fill="#004085" font-family="Arial, sans-serif" font-size="10">
    • Kostnadsoptimalisering
  </text><text x="340" y="235" fill="#004085" font-family="Arial, sans-serif" font-size="10">
    • Automatiserte systemer
  </text><path stroke="#1976d2" stroke-width="2" marker-end="url(#b)" d="M540 160h40"/><rect width="160" height="180" x="590" y="70" fill="url(#d)" stroke="#ffc107" stroke-width="3" rx="15"/><text x="670" y="90" fill="#856404" font-family="Arial, sans-serif" font-size="14" font-weight="bold" text-anchor="middle">
    Prosjektbaserte
  </text><text x="670" y="105" fill="#856404" font-family="Arial, sans-serif" font-size="14" font-weight="bold" text-anchor="middle">
    Anskaffelser
  </text><circle cx="670" cy="135" r="20" fill="#ffc107" opacity=".3"/><path fill="none" stroke="#ffc107" stroke-width="3" d="M660 125h20l-5 10 5 10h-20Z"/><circle cx="670" cy="135" r="5" fill="#ffc107"/><text x="670" y="165" fill="#856404" font-family="Arial, sans-serif" font-size="11" font-weight="bold" text-anchor="middle">
    Kjennetegn:
  </text><text x="610" y="185" fill="#856404" font-family="Arial, sans-serif" font-size="10">
    • Spesifikke prosjektbehov
  </text><text x="610" y="200" fill="#856404" font-family="Arial, sans-serif" font-size="10">
    • Midlertidige forhold
  </text><text x="610" y="215" fill="#856404" font-family="Arial, sans-serif" font-size="10">
    • Skreddersydde løsninger
  </text><text x="610" y="230" fill="#856404" font-family="Arial, sans-serif" font-size="10">
    • Fleksible kontrakter
  </text><rect width="600" height="160" x="100" y="280" fill="#fff" stroke="#dee2e6" stroke-width="2" rx="10"/><text x="400" y="305" fill="#495057" font-family="Arial, sans-serif" font-size="18" font-weight="bold" text-anchor="middle">
    Beslutningsfaktorer for Private Anskaffelser
  </text><text x="200" y="330" fill="#6c757d" font-family="Arial, sans-serif" font-size="14" font-weight="bold" text-anchor="middle">
    Kostnadsfaktorer
  </text><text x="200" y="350" fill="#6c757d" font-family="Arial, sans-serif" font-size="11" text-anchor="middle">
    • Total eierkostnad (TCO)
  </text><text x="200" y="365" fill="#6c757d" font-family="Arial, sans-serif" font-size="11" text-anchor="middle">
    • Priskonkurranse
  </text><text x="200" y="380" fill="#6c757d" font-family="Arial, sans-serif" font-size="11" text-anchor="middle">
    • Volumrabatter
  </text><text x="200" y="395" fill="#6c757d" font-family="Arial, sans-serif" font-size="11" text-anchor="middle">
    • Betalingsbetingelser
  </text><text x="400" y="330" fill="#6c757d" font-family="Arial, sans-serif" font-size="14" font-weight="bold" text-anchor="middle">
    Kvalitetsfaktorer
  </text><text x="400" y="350" fill="#6c757d" font-family="Arial, sans-serif" font-size="11" text-anchor="middle">
    • Produktkvalitet
  </text><text x="400" y="365" fill="#6c757d" font-family="Arial, sans-serif" font-size="11" text-anchor="middle">
    • Leverandørens omdømme
  </text><text x="400" y="380" fill="#6c757d" font-family="Arial, sans-serif" font-size="11" text-anchor="middle">
    • Sertifiseringer
  </text><text x="400" y="395" fill="#6c757d" font-family="Arial, sans-serif" font-size="11" text-anchor="middle">
    • Kundeservice
  </text><text x="600" y="330" fill="#6c757d" font-family="Arial, sans-serif" font-size="14" font-weight="bold" text-anchor="middle">
    Strategiske Faktorer
  </text><text x="600" y="350" fill="#6c757d" font-family="Arial, sans-serif" font-size="11" text-anchor="middle">
    • Leverandørens kapasitet
  </text><text x="600" y="365" fill="#6c757d" font-family="Arial, sans-serif" font-size="11" text-anchor="middle">
    • Geografisk nærhet
  </text><text x="600" y="380" fill="#6c757d" font-family="Arial, sans-serif" font-size="11" text-anchor="middle">
    • Bærekraftshensyn
  </text><text x="600" y="395" fill="#6c757d" font-family="Arial, sans-serif" font-size="11" text-anchor="middle">
    • Innovasjonsevne
  </text><text x="400" y="425" fill="#6c757d" font-family="Arial, sans-serif" font-size="12" text-anchor="middle">
    Private bedrifter har større frihet til å velge leverandører basert på egne kriterier
  </text><path fill="#e9ecef" d="M0 460h800v40H0z"/><text x="400" y="485" fill="#6c757d" font-family="Arial, sans-serif" font-size="11" text-anchor="middle">
    Effektive private anskaffelser balanserer kostnad, kvalitet og strategiske hensyn
  </text></svg>

<svg width="800" height="500" xmlns="http://www.w3.org/2000/svg">
  <defs>
    <linearGradient id="strategicGradient" x1="0%" y1="0%" x2="100%" y2="100%">
      <stop offset="0%" style="stop-color:#e8f5e8;stop-opacity:1" />
      <stop offset="100%" style="stop-color:#d4edda;stop-opacity:1" />
    </linearGradient>
    <linearGradient id="operationalGradient" x1="0%" y1="0%" x2="100%" y2="100%">
      <stop offset="0%" style="stop-color:#e3f2fd;stop-opacity:1" />
      <stop offset="100%" style="stop-color:#bbdefb;stop-opacity:1" />
    </linearGradient>
    <linearGradient id="projectGradient" x1="0%" y1="0%" x2="100%" y2="100%">
      <stop offset="0%" style="stop-color:#fff8e1;stop-opacity:1" />
      <stop offset="100%" style="stop-color:#ffecb3;stop-opacity:1" />
    </linearGradient>
    <marker id="arrowPrivate" markerWidth="10" markerHeight="10" refX="9" refY="3" orient="auto" markerUnits="strokeWidth">
      <path d="M0,0 L0,6 L9,3 z" fill="#1976d2"/>
    </marker>
  </defs>
  

  <rect width="800" height="500" fill="#f8f9fa"/>
  

  <text x="400" y="30" font-family="Arial, sans-serif" font-size="24" font-weight="bold" text-anchor="middle" fill="#1976d2">
    Private Anskaffelsesprosesser
  </text>
  

  <rect x="50" y="70" width="220" height="180" fill="url(#strategicGradient)" stroke="#28a745" stroke-width="3" rx="15"/>
  <text x="160" y="95" font-family="Arial, sans-serif" font-size="16" font-weight="bold" text-anchor="middle" fill="#155724">
    Strategisk Innkjøp
  </text>
  

  <circle cx="160" cy="125" r="20" fill="#28a745" opacity="0.3"/>
  <path d="M150 115 L170 115 L165 125 L170 135 L150 135 L155 125 Z" fill="#28a745"/>
  
  <text x="160" y="155" font-family="Arial, sans-serif" font-size="11" font-weight="bold" text-anchor="middle" fill="#155724">
    Kjennetegn:
  </text>
  <text x="70" y="175" font-family="Arial, sans-serif" font-size="10" fill="#155724">
    • Langsiktige leverandørforhold
  </text>
  <text x="70" y="190" font-family="Arial, sans-serif" font-size="10" fill="#155724">
    • Fokus på verdiskaping
  </text>
  <text x="70" y="205" font-family="Arial, sans-serif" font-size="10" fill="#155724">
    • Integrert med forretningsstrategi
  </text>
  <text x="70" y="220" font-family="Arial, sans-serif" font-size="10" fill="#155724">
    • Partnerskapsmodeller
  </text>
  <text x="70" y="235" font-family="Arial, sans-serif" font-size="10" fill="#155724">
    • Innovasjonsfokus
  </text>
  

  <line x1="270" y1="160" x2="310" y2="160" stroke="#1976d2" stroke-width="2" marker-end="url(#arrowPrivate)"/>
  

  <rect x="320" y="70" width="220" height="180" fill="url(#operationalGradient)" stroke="#007bff" stroke-width="3" rx="15"/>
  <text x="430" y="95" font-family="Arial, sans-serif" font-size="16" font-weight="bold" text-anchor="middle" fill="#004085">
    Operasjonelt Innkjøp
  </text>
  

  <circle cx="430" cy="125" r="20" fill="#007bff" opacity="0.3"/>
  <rect x="415" y="110" width="30" height="30" fill="none" stroke="#007bff" stroke-width="3"/>
  <path d="M420 120 L440 120 M420 125 L440 125 M420 130 L440 130" stroke="#007bff" stroke-width="2"/>
  
  <text x="430" y="155" font-family="Arial, sans-serif" font-size="11" font-weight="bold" text-anchor="middle" fill="#004085">
    Kjennetegn:
  </text>
  <text x="340" y="175" font-family="Arial, sans-serif" font-size="10" fill="#004085">
    • Daglige innkjøpsbehov
  </text>
  <text x="340" y="190" font-family="Arial, sans-serif" font-size="10" fill="#004085">
    • Fokus på effektivitet
  </text>
  <text x="340" y="205" font-family="Arial, sans-serif" font-size="10" fill="#004085">
    • Standardiserte prosesser
  </text>
  <text x="340" y="220" font-family="Arial, sans-serif" font-size="10" fill="#004085">
    • Kostnadsoptimalisering
  </text>
  <text x="340" y="235" font-family="Arial, sans-serif" font-size="10" fill="#004085">
    • Automatiserte systemer
  </text>
  

  <line x1="540" y1="160" x2="580" y2="160" stroke="#1976d2" stroke-width="2" marker-end="url(#arrowPrivate)"/>
  

  <rect x="590" y="70" width="160" height="180" fill="url(#projectGradient)" stroke="#ffc107" stroke-width="3" rx="15"/>
  <text x="670" y="90" font-family="Arial, sans-serif" font-size="14" font-weight="bold" text-anchor="middle" fill="#856404">
    Prosjektbaserte
  </text>
  <text x="670" y="105" font-family="Arial, sans-serif" font-size="14" font-weight="bold" text-anchor="middle" fill="#856404">
    Anskaffelser
  </text>
  

  <circle cx="670" cy="135" r="20" fill="#ffc107" opacity="0.3"/>
  <path d="M660 125 L680 125 L675 135 L680 145 L660 145 Z" fill="none" stroke="#ffc107" stroke-width="3"/>
  <circle cx="670" cy="135" r="5" fill="#ffc107"/>
  
  <text x="670" y="165" font-family="Arial, sans-serif" font-size="11" font-weight="bold" text-anchor="middle" fill="#856404">
    Kjennetegn:
  </text>
  <text x="610" y="185" font-family="Arial, sans-serif" font-size="10" fill="#856404">
    • Spesifikke prosjektbehov
  </text>
  <text x="610" y="200" font-family="Arial, sans-serif" font-size="10" fill="#856404">
    • Midlertidige forhold
  </text>
  <text x="610" y="215" font-family="Arial, sans-serif" font-size="10" fill="#856404">
    • Skreddersydde løsninger
  </text>
  <text x="610" y="230" font-family="Arial, sans-serif" font-size="10" fill="#856404">
    • Fleksible kontrakter
  </text>
  

  <rect x="100" y="280" width="600" height="160" fill="white" stroke="#dee2e6" stroke-width="2" rx="10"/>
  <text x="400" y="305" font-family="Arial, sans-serif" font-size="18" font-weight="bold" text-anchor="middle" fill="#495057">
    Beslutningsfaktorer for Private Anskaffelser
  </text>
  

  <text x="200" y="330" font-family="Arial, sans-serif" font-size="14" font-weight="bold" text-anchor="middle" fill="#6c757d">
    Kostnadsfaktorer
  </text>
  <text x="200" y="350" font-family="Arial, sans-serif" font-size="11" text-anchor="middle" fill="#6c757d">
    • Total eierkostnad (TCO)
  </text>
  <text x="200" y="365" font-family="Arial, sans-serif" font-size="11" text-anchor="middle" fill="#6c757d">
    • Priskonkurranse
  </text>
  <text x="200" y="380" font-family="Arial, sans-serif" font-size="11" text-anchor="middle" fill="#6c757d">
    • Volumrabatter
  </text>
  <text x="200" y="395" font-family="Arial, sans-serif" font-size="11" text-anchor="middle" fill="#6c757d">
    • Betalingsbetingelser
  </text>
  
  <text x="400" y="330" font-family="Arial, sans-serif" font-size="14" font-weight="bold" text-anchor="middle" fill="#6c757d">
    Kvalitetsfaktorer
  </text>
  <text x="400" y="350" font-family="Arial, sans-serif" font-size="11" text-anchor="middle" fill="#6c757d">
    • Produktkvalitet
  </text>
  <text x="400" y="365" font-family="Arial, sans-serif" font-size="11" text-anchor="middle" fill="#6c757d">
    • Leverandørens omdømme
  </text>
  <text x="400" y="380" font-family="Arial, sans-serif" font-size="11" text-anchor="middle" fill="#6c757d">
    • Sertifiseringer
  </text>
  <text x="400" y="395" font-family="Arial, sans-serif" font-size="11" text-anchor="middle" fill="#6c757d">
    • Kundeservice
  </text>
  
  <text x="600" y="330" font-family="Arial, sans-serif" font-size="14" font-weight="bold" text-anchor="middle" fill="#6c757d">
    Strategiske Faktorer
  </text>
  <text x="600" y="350" font-family="Arial, sans-serif" font-size="11" text-anchor="middle" fill="#6c757d">
    • Leverandørens kapasitet
  </text>
  <text x="600" y="365" font-family="Arial, sans-serif" font-size="11" text-anchor="middle" fill="#6c757d">
    • Geografisk nærhet
  </text>
  <text x="600" y="380" font-family="Arial, sans-serif" font-size="11" text-anchor="middle" fill="#6c757d">
    • Bærekraftshensyn
  </text>
  <text x="600" y="395" font-family="Arial, sans-serif" font-size="11" text-anchor="middle" fill="#6c757d">
    • Innovasjonsevne
  </text>
  

  <text x="400" y="425" font-family="Arial, sans-serif" font-size="12" text-anchor="middle" fill="#6c757d">
    Private bedrifter har større frihet til å velge leverandører basert på egne kriterier
  </text>
  

  <rect x="0" y="460" width="800" height="40" fill="#e9ecef"/>
  <text x="400" y="485" font-family="Arial, sans-serif" font-size="11" text-anchor="middle" fill="#6c757d">
    Effektive private anskaffelser balanserer kostnad, kvalitet og strategiske hensyn
  </text>
</svg>
